assets/skill/herr-figma.svg

<svg width="58" height="58" viewBox="0 0 58 58" fill="none" xmlns="http://www.w3.org/2000/svg">
<rect x="0.372559" y="0.751465" width="56.7516" height="56.7516" rx="8.25478" fill="url(#paint0_linear_267_5472)"/>
<path d="M21.0303 51.8272C23.017 51.8272 24.9224 51.038 26.3272 49.6332C27.7321 48.2283 28.5213 46.323 28.5213 44.3362V36.8452H21.0303C19.0436 36.8452 17.1382 37.6344 15.7334 39.0393C14.3285 40.4441 13.5393 42.3495 13.5393 44.3362C13.5393 46.323 14.3285 48.2283 15.7334 49.6332C17.1382 51.038 19.0436 51.8272 21.0303 51.8272Z" fill="#0ACF83"/>
<path d="M13.5393 29.1272C13.5393 27.0802 14.3285 25.1171 15.7334 23.6697C17.1382 22.2223 19.0436 21.4092 21.0303 21.4092H28.5213V36.8452H21.0303C19.0436 36.8452 17.1382 36.032 15.7334 34.5846C14.3285 33.1372 13.5393 31.1741 13.5393 29.1272Z" fill="#A259FF"/>
<path d="M13.5393 13.9182C13.5393 11.9325 14.328 10.028 15.7322 8.62338C17.1363 7.21871 19.0409 6.4288 21.0274 6.42725H28.5213V21.4092H21.0332C19.0457 21.4092 17.1396 20.62 15.7342 19.2152C14.3288 17.8103 13.5393 15.905 13.5393 13.9182Z" fill="#F24E1E"/>
<path d="M28.5212 6.42725H36.2392C38.2862 6.42725 40.2493 7.21647 41.6967 8.62131C43.1441 10.0261 43.9572 11.9315 43.9572 13.9182C43.9572 15.905 43.1441 17.8103 41.6967 19.2152C40.2493 20.62 38.2862 21.4092 36.2392 21.4092H28.5212V6.42725Z" fill="#FF7262"/>
<path d="M43.9572 29.1272C43.9572 31.1741 43.1441 33.1372 41.6967 34.5846C40.2493 36.032 38.2862 36.8452 36.2392 36.8452C34.1923 36.8452 32.2292 36.032 30.7818 34.5846C29.3344 33.1372 28.5212 31.1741 28.5212 29.1272C28.5212 27.0802 29.3344 25.1171 30.7818 23.6697C32.2292 22.2223 34.1923 21.4092 36.2392 21.4092C38.2862 21.4092 40.2493 22.2223 41.6967 23.6697C43.1441 25.1171 43.9572 27.0802 43.9572 29.1272Z" fill="#1ABCFE"/>
<defs>
<linearGradient id="paint0_linear_267_5472" x1="28.7484" y1="0.751465" x2="28.7484" y2="57.5031" gradientUnits="userSpaceOnUse">
<stop stop-color="#FDFDFD"/>
<stop offset="1" stop-color="#F5F4F4"/>
</linearGradient>
</defs>
</svg>

<svg xmlns="http://www.w3.org/2000/svg" width="58" height="58" fill="none" viewBox="0 0 58 58"><rect width="56.752" height="56.752" x=".373" y=".751" fill="url(#paint0_linear_267_5472)" rx="8.255"/><path fill="#0acf83" d="M21.03 51.827a7.49 7.49 0 0 0 7.491-7.49v-7.492h-7.49a7.49 7.49 0 1 0 0 14.982"/><path fill="#a259ff" d="M13.54 29.127c0-2.047.789-4.01 2.193-5.457a7.38 7.38 0 0 1 5.297-2.26h7.491v15.435h-7.49a7.38 7.38 0 0 1-5.298-2.26 7.84 7.84 0 0 1-2.194-5.458"/><path fill="#f24e1e" d="M13.54 13.918a7.49 7.49 0 0 1 7.487-7.49h7.494v14.981h-7.488a7.496 7.496 0 0 1-7.494-7.49"/><path fill="#ff7262" d="M28.521 6.427h7.718c2.047 0 4.01.79 5.458 2.194a7.38 7.38 0 0 1 2.26 5.297 7.38 7.38 0 0 1-2.26 5.297 7.84 7.84 0 0 1-5.458 2.194h-7.718z"/><path fill="#1abcfe" d="M43.957 29.127a7.718 7.718 0 1 1-15.436 0 7.718 7.718 0 0 1 15.436 0"/><defs><linearGradient id="paint0_linear_267_5472" x1="28.748" x2="28.748" y1=".751" y2="57.503" gradientUnits="userSpaceOnUse"><stop stop-color="#fdfdfd"/><stop offset="1" stop-color="#f5f4f4"/></linearGradient></defs></svg>
